X: 10523
T: The VEXED EDITOR
C:
%R: reel
B: Elias Howe "The Musician's Companion" Part 1 1842 p.53 #3
S: http://imslp.org/wiki/The_Musician's_Companion_(Howe,_Elias)
Z: 2015 John Chambers <jc:trillian.mit.edu>
M: 2/4
L: 1/16
K: G
% - - - - - - - - - - - - - - - - - - - - - - - - -
|:\
GBdB c2c2 | GBdB A2A2 |\
GBdB c2ce | edBA G2G2 ::\
gdcB c2c2 | ecec A2A2 |\
gdcB c2ce | dcBA G2G2 :|
% - - - - - - - - - - - - - - - - - - - - - - - - -

% (Continued from previous page)


